public/logos/tietoevry.svg

<?xml version="1.0" encoding="utf-8"?>
<!-- Generator: Adobe Illustrator 26.4.1, SVG Export Plug-In . SVG Version: 6.00 Build 0)  -->
<svg version="1.1" id="_x31_024_pixel_perfect" xmlns="http://www.w3.org/2000/svg" xmlns:xlink="http://www.w3.org/1999/xlink"
	 x="0px" y="0px" viewBox="0 0 1328 224" enable-background="new 0 0 1328 224" xml:space="preserve">
<path d="M561,49.084c-33.689,0-63,29.311-63,63s26.311,61,60,61h51v-26h-82v-24h97v-11C624,78.395,594.689,49.084,561,49.084z
	 M595,101.084h-68v-24h68V101.084z M429,25.084c0-9.389,7.611-17,17-17s17,7.611,17,17s-7.611,17-17,17S429,34.473,429,25.084z
	 M472,147.084h24v26h-74v-26h24v-70h-36v-26c36,0,62,28,62,62V147.084z M356,147.084h44v26h-8c-38,0-62-26-62-62v-34h-26v-26h26v-51
	h26v51h32v26h-32V147.084z M1154,147.084h44v26h-88v-26h18v-36c0-34,26-60,62-60v26h-36V147.084z M677,147.084h50v26h-14
	c-36,0-62-26-62-62v-34h-26v-26h26v-51h26v51h38v26h-38V147.084z M1118,53.084c0,0-20,78-24,94s-16,28-36,28s-32-12-36-28
	s-24-94-24-94h28l20,94h24l20-94H1118z M1328,53.084c0,0-25,99-32,126s-31.778,45-62,45h-6v-25h46v-24h-12c-17.814,0-28-13-32-28
	s-24-94-24-94h28l18,94h30l18-94H1328z M932,49.084c-33.689,0-63,29.311-63,63s26.311,61,60,61h51v-26h-82v-24h97v-11
	C995,78.395,965.689,49.084,932,49.084z M966,101.084h-68v-24h68V101.084z M795,49.084c-34.794,0-63,28.206-63,63s28.206,63,63,63
	s63-28.206,63-63S829.794,49.084,795,49.084z M830,147.084h-70v-70h70V147.084z M64,64v64H0V64h32V32h32V0h64v64H64z M190,176
	c0,7.732-6.268,14-14,14s-14-6.268-14-14s6.268-14,14-14S190,168.268,190,176z M156,208c0,6.627-5.373,12-12,12s-12-5.373-12-12
	s5.373-12,12-12S156,201.373,156,208z M126,208c0,7.732-6.268,14-14,14s-14-6.268-14-14s6.268-14,14-14S126,200.268,126,208z
	 M160,176c0,8.837-7.163,16-16,16s-16-7.163-16-16s7.163-16,16-16S160,167.163,160,176z M128,176c0,8.837-7.163,16-16,16
	s-16-7.163-16-16s7.163-16,16-16S128,167.163,128,176z M220,144c0,6.627-5.373,12-12,12s-12-5.373-12-12s5.373-12,12-12
	S220,137.373,220,144z M176,128c8.837,0,16,7.163,16,16s-7.163,16-16,16s-16-7.163-16-16S167.163,128,176,128z M222,112
	c0,7.732-6.268,14-14,14s-14-6.268-14-14s6.268-14,14-14S222,104.268,222,112z M176,128c-8.837,0-16-7.163-16-16s7.163-16,16-16
	s16,7.163,16,16S184.837,128,176,128z"/>
</svg>

<?xml version="1.0" encoding="UTF-8"?><svg id="Layer_2" xmlns="http://www.w3.org/2000/svg" viewBox="0 0 1328 224.08"><defs><style>.cls-1{fill:#650729;}</style></defs><g id="_1024_pixel_perfect"><path class="cls-1" d="m561,49.08c-33.69,0-63,29.31-63,63s26.31,61,60,61h51v-26h-82v-24h97v-11c0-33.69-29.31-63-63-63Zm34,52h-68v-24h68v24ZM429,25.08c0-9.39,7.61-17,17-17s17,7.61,17,17-7.61,17-17,17-17-7.61-17-17Zm43,122h24v26h-74v-26h24v-70h-36v-26c36,0,62,28,62,62v34Zm-116,0h44v26h-8c-38,0-62-26-62-62v-34h-26v-26h26V.08h26v51h32v26h-32v70Zm798,0h44v26h-88v-26h18v-36c0-34,26-60,62-60v26h-36v70Zm-477,0h50v26h-14c-36,0-62-26-62-62v-34h-26v-26h26V.08h26v51h38v26h-38v70Zm441-94s-20,78-24,94-16,28-36,28-32-12-36-28-24-94-24-94h28l20,94h24l20-94h28Zm210,0s-25,99-32,126-31.78,45-62,45h-6v-25h46v-24h-12c-17.81,0-28-13-32-28s-24-94-24-94h28l18,94h30l18-94h28Zm-396-4c-33.69,0-63,29.31-63,63s26.31,61,60,61h51v-26h-82v-24h97v-11c0-33.69-29.31-63-63-63Zm34,52h-68v-24h68v24Zm-171-52c-34.79,0-63,28.21-63,63s28.21,63,63,63,63-28.21,63-63-28.21-63-63-63Zm35,98h-70v-70h70v70ZM64,64v64H0v-64h32v-32h32V0h64v64h-64Zm126,112c0,7.73-6.27,14-14,14s-14-6.27-14-14,6.27-14,14-14,14,6.27,14,14Zm-34,32c0,6.63-5.37,12-12,12s-12-5.37-12-12,5.37-12,12-12,12,5.37,12,12Zm-30,0c0,7.73-6.27,14-14,14s-14-6.27-14-14,6.27-14,14-14,14,6.27,14,14Zm34-32c0,8.84-7.16,16-16,16s-16-7.16-16-16,7.16-16,16-16,16,7.16,16,16Zm-32,0c0,8.84-7.16,16-16,16s-16-7.16-16-16,7.16-16,16-16,16,7.16,16,16Zm92-32c0,6.63-5.37,12-12,12s-12-5.37-12-12,5.37-12,12-12,12,5.37,12,12Zm-44-16c8.84,0,16,7.16,16,16s-7.16,16-16,16-16-7.16-16-16,7.16-16,16-16Zm46-16c0,7.73-6.27,14-14,14s-14-6.27-14-14,6.27-14,14-14,14,6.27,14,14Zm-46,16c-8.84,0-16-7.16-16-16s7.16-16,16-16,16,7.16,16,16-7.16,16-16,16Z"/></g></svg>
